X:1
T: An Pa\'isti\'n Fionn (Waltz variant)
R: waltz
S: Jake Schumacher, 09/10/2000
N: He sped it up to a jig afterwards
Z: Jerome Colburn <jscolbur:PRAIRIENET.ORG> irtrad-l 2000-10-27
M:3/4
K:D
DE | F3 GAB | =c2 A2 A2 | B2 G2 G2 | =c2 A2 G2 |\
     F3 GAB | =c2 A2 G2 | A2 d2 c2 | d4 |
DE | F3 GAB | =c2 A2 A2 | f3 g f2 | e3 f e2 |\
     d2 =c2 A2 | G2 E2 A2 | D3 E D2 | D4 :|
|:\
A2 | d3 e dB | =c2 B2 A2 | B2 d2 =c2 | A4 A2 |\
     d3 e dB | =c2 B2 A2 | =c2 d2 e2 | g3 a ge |
     d3 e dB | =c2 B2 A2 | f3 g f2 | e3 f e2 |\
     d2 =c2 A2 | G2 E2 A2 | D3 E D2 | D4 :|
